!!!OTL: ZU DIR ZIEHTS MI HIN
!!!ARE: Europa, Mitteleuropa, Deutschland, Bayern
!!!SCT: E0570
!!!YEM: Copyright 1995, estate of Helmut Schaffrath.
**kern
*ICvox
*Ivox
*M3/4
*k[f#c#g#]
*A:
{8e
8ee
=1
4ee
8cc#
8a
8f#
8dd
=2
2cc#}
{8cc#
8ee
=3
4cc#
4b
8f#
8g#
=4
4a
4r}
{8a
8ff#
=5
4ee
8cc#
8a
8f#
8dd
=6
2cc#}
{8cc#
8dd
=7
4cc#
4b
8f#
8g#
=8
2a}
{8.b
16b
=9
8cc#
8b
8a
8f#
8d#
8b
=10
4b}
{4.g#
8e
=11
4b
4.a
8f#
=12
2b}
{8a
8ff#
=13
4ee
8cc#
8a
8f#
8dd
=14
4cc#
8r}
{8cc#
8cc#
8dd
=15
4cc#
4b
8f#
8g#
=16
2a}
{4b
=17
8.dd
16ee
8.dd
16ee
8.dd
16ee
=18
8.cc#
16b#
4cc#}
{8dd
8cc#
=19
8b
8a#
8b
8dd
8cc#
8b
=20
8.a
16b
4cc#}
{4ee
=21
8.dd
16ee
8.dd
16ee
8.dd
16ee
=22
8.cc#
16b#
4cc#}
{8dd
8cc#
=23
8b
8a#
8b
8dd
8cc#
8b
=24
2a}
==
!!!AGN: Liebes - Lied
!!!ONB: ESAC (Essen Associative Code) Database: ERK1
!!!AMT: simple triple
!!!AIN: vox
!!!EED: Helmut Schaffrath
!!!EEV: 1.0
*-
